pill-multiple.svg

<svg fill="currentColor" viewBox="0 0 24 24"><path d="M16.2 3.5c-1-1-2.3-1.5-3.5-1.5s-2.6.5-3.5 1.5L3.4 9.1c-2 2-2 5.1 0 7.1s5.1 2 7.1 0l5.7-5.7c1.9-1.9 1.9-5.1 0-7m-1.4 5.6L12 11.9 8.4 8.4 4 12.8c0-.8.2-1.7.9-2.3l5.7-5.7c.5-.5 1.3-.8 2-.8s1.5.3 2.1.8c1.2 1.3 1.2 3.1.1 4.3m4.8-2c0 .8-.2 1.5-.4 2.3 1 1.2 1 3-.1 4.1l-2.8 2.8-1.5-1.5-2.8 2.8c-1.3 1.3-3.1 2-4.8 2 .2.3.4.6.7.9 2 2 5.1 2 7.1 0l5.7-5.7c2-2 2-5.1 0-7.1-.5-.2-.8-.4-1.1-.6"/></svg>

<svg  viewBox="0 0 24 24" fill="currentColor"><path  d="M16.2 3.5C15.2 2.5 13.9 2 12.7 2S10.1 2.5 9.2 3.5L3.4 9.1C1.4 11.1 1.4 14.2 3.4 16.2S8.5 18.2 10.5 16.2L16.2 10.5C18.1 8.6 18.1 5.4 16.2 3.5M14.8 9.1L12 11.9L8.4 8.4L4 12.8C4 12 4.2 11.1 4.9 10.5L10.6 4.8C11.1 4.3 11.9 4 12.6 4S14.1 4.3 14.7 4.8C15.9 6.1 15.9 7.9 14.8 9.1M19.6 7.1C19.6 7.9 19.4 8.6 19.2 9.4C20.2 10.6 20.2 12.4 19.1 13.5L16.3 16.3L14.8 14.8L12 17.6C10.7 18.9 8.9 19.6 7.2 19.6C7.4 19.9 7.6 20.2 7.9 20.5C9.9 22.5 13 22.5 15 20.5L20.7 14.8C22.7 12.8 22.7 9.7 20.7 7.7C20.2 7.5 19.9 7.3 19.6 7.1Z"/></svg>
